svgs/sharp-regular/car-garage.svg

<svg xmlns="http://www.w3.org/2000/svg" viewBox="0 0 640 512"><!--! Font Awesome Pro 6.6.0 by @fontawesome - https://fontawesome.com License - https://fontawesome.com/license (Commercial License) Copyright 2024 Fonticons, Inc. --><path d="M331 10.7l280 144 21.3 11-22 42.7-21.3-11L320 59 51 197.3l-21.3 11-22-42.7 21.3-11 280-144L320 5l11 5.6zM199.1 160l16.9 0 208 0 16.9 0 5.7 15.9L480.9 272l47.1 0 0 48 0 80 0 16 0 32 0 64-48 0 0-64-320 0 0 64-48 0 0-64 0-32 0-16 0-80 0-48 47.1 0 34.3-96.1 5.7-15.9zm208 48l-174.2 0-22.9 64 219.9 0-22.9-64zM480 320l-320 0 0 80 320 0 0-80zM208 336a24 24 0 1 1 0 48 24 24 0 1 1 0-48zm200 24a24 24 0 1 1 48 0 24 24 0 1 1 -48 0z"/></svg>

<svg xmlns="http://www.w3.org/2000/svg" viewBox="0 0 640 512"><!--! Font Awesome Pro 6.4.0 by @fontawesome - https://fontawesome.com License - https://fontawesome.com/license (Commercial License) Copyright 2023 Fonticons, Inc. --><path d="M331 10.7l280 144 21.3 11-22 42.7-21.3-11L320 59 51 197.3l-21.3 11-22-42.7 21.3-11 280-144L320 5l11 5.6zM199.1 160H216 424h16.9l5.7 15.9L480.9 272H528v48 80 16 32 64H480l0-64H160v64H112V448 416 400 320 272h47.1l34.3-96.1 5.7-15.9zm208 48H232.9l-22.9 64H429.9l-22.9-64zM480 320H160v80H480V320zM208 336a24 24 0 1 1 0 48 24 24 0 1 1 0-48zm200 24a24 24 0 1 1 48 0 24 24 0 1 1 -48 0z"/></svg>
